src/main/resources/images/cc/by-nd.svg

<?xml version="1.0" encoding="UTF-8" standalone="no"?>
<!-- Created with Inkscape (http://www.inkscape.org/) -->
<svg
   xmlns:dc="http://purl.org/dc/elements/1.1/"
   xmlns:cc="http://web.resource.org/cc/"
   xmlns:rdf="http://www.w3.org/1999/02/22-rdf-syntax-ns#"
   xmlns:svg="http://www.w3.org/2000/svg"
   xmlns="http://www.w3.org/2000/svg"
   xmlns:sodipodi="http://sodipodi.sourceforge.net/DTD/sodipodi-0.dtd"
   xmlns:inkscape="http://www.inkscape.org/namespaces/inkscape"
   width="120"
   height="42"
   id="svg2759"
   sodipodi:version="0.32"
   inkscape:version="0.45+devel"
   version="1.0"
   sodipodi:docname="by-nd.svg"
   inkscape:output_extension="org.inkscape.output.svg.inkscape">
  <defs
     id="defs2761" />
  <sodipodi:namedview
     id="base"
     pagecolor="#ffffff"
     bordercolor="#8b8b8b"
     borderopacity="1"
     gridtolerance="10000"
     guidetolerance="10"
     objecttolerance="10"
     inkscape:pageopacity="0.0"
     inkscape:pageshadow="2"
     inkscape:zoom="1"
     inkscape:cx="179"
     inkscape:cy="89.569904"
     inkscape:document-units="px"
     inkscape:current-layer="layer1"
     width="120px"
     height="42px"
     inkscape:showpageshadow="false"
     inkscape:window-width="1198"
     inkscape:window-height="624"
     inkscape:window-x="488"
     inkscape:window-y="401" />
  <metadata
     id="metadata2764">
    <rdf:RDF>
      <cc:Work
         rdf:about="">
        <dc:format>image/svg+xml</dc:format>
        <dc:type
           rdf:resource="http://purl.org/dc/dcmitype/StillImage" />
      </cc:Work>
    </rdf:RDF>
  </metadata>
  <g
     inkscape:label="Layer 1"
     inkscape:groupmode="layer"
     id="layer1">
    <g
       transform="matrix(0.9937808,0,0,0.9936696,-177.69414,-223.30978)"
       id="g78"
       inkscape:export-filename="/mnt/hgfs/Bov/Documents/Work/2007/cc/identity/srr buttons/big/by-nd.png"
       inkscape:export-xdpi="300.23013"
       inkscape:export-ydpi="300.23013">
	<path
   id="path3817_6_"
   nodetypes="ccccccc"
   d="M 182.23535,225.17188 L 296.29931,225.375 C 297.89306,225.375 299.31689,225.13867 299.31689,228.55566 L 299.17724,266.12207 L 179.35693,266.12207 L 179.35693,228.41602 C 179.35693,226.73145 179.52002,225.17188 182.23535,225.17188 z"
   style="fill:#aab2ab" />

	<g
   id="g5908_6_"
   transform="matrix(0.872921,0,0,0.872921,50.12536,143.2144)">
		
			<path
   id="path5906_6_"
   cx="296.35416"
   ry="22.939548"
   cy="264.3577"
   type="arc"
   rx="22.939548"
   d="M 187.20946,115.90759 C 187.21504,124.58783 180.1816,131.62912 171.50138,131.6347 C 162.82116,131.64028 155.77932,124.60684 155.77428,115.92663 C 155.77428,115.91992 155.77428,115.9143 155.77428,115.90759 C 155.76924,107.22625 162.80213,100.18609 171.48236,100.18051 C 180.16368,100.17602 187.20442,107.20837 187.20946,115.88858 C 187.20946,115.89529 187.20946,115.90088 187.20946,115.90759 z"
   style="fill:#ffffff" />

		<g
   id="g5706_6_"
   transform="translate(-289.6157,99.0653)">
			<path
   id="path5708_6_"
   d="M 473.88458,4.04068 C 477.36999,7.52551 479.11297,11.79349 479.11297,16.84229 C 479.11297,21.89225 477.40014,26.11432 473.9746,29.51081 C 470.33929,33.08625 466.04284,34.874 461.08517,34.874 C 456.18737,34.874 451.9653,33.10191 448.42004,29.55442 C 444.87423,26.00916 443.10162,21.77143 443.10162,16.84229 C 443.10162,11.91431 444.87423,7.64634 448.42004,4.04068 C 451.87524,0.55359 456.09732,-1.18939 461.08517,-1.18939 C 466.13342,-1.18939 470.39917,0.55359 473.88458,4.04068 z M 450.7666,6.38443 C 447.81982,9.36136 446.34704,12.84845 446.34704,16.84677 C 446.34704,20.84512 447.80529,24.302 450.72125,27.2185 C 453.63781,30.13391 457.10977,31.59274 461.1383,31.59274 C 465.16686,31.59274 468.66851,30.12051 471.64489,27.17376 C 474.47076,24.43734 475.88427,20.99615 475.88427,16.84676 C 475.88427,12.72872 474.44781,9.23381 471.57659,6.36202 C 468.70598,3.49248 465.22674,2.05605 461.1383,2.05605 C 457.04993,2.05606 453.59192,3.49921 450.7666,6.38443 z M 458.52106,15.08813 C 458.07077,14.10589 457.39673,13.61587 456.49784,13.61587 C 454.9087,13.61587 454.11439,14.68539 454.11439,16.8244 C 454.11439,18.96341 454.9087,20.03293 456.49784,20.03293 C 457.54719,20.03293 458.29676,19.5116 458.74647,18.46893 L 460.94926,19.64135 C 459.89933,21.50628 458.32417,22.44042 456.22377,22.44042 C 454.60384,22.44042 453.30611,21.94369 452.33168,20.95028 C 451.35561,19.95684 450.86897,18.58752 450.86897,16.84228 C 450.86897,15.12728 451.37126,13.76577 452.37645,12.75671 C 453.38161,11.74871 454.6335,11.2453 456.13426,11.2453 C 458.35438,11.2453 459.9441,12.11902 460.90507,13.86758 L 458.52106,15.08813 z M 468.8844,15.08813 C 468.43353,14.10589 467.77295,13.61587 466.90204,13.61587 C 465.28095,13.61587 464.46991,14.68539 464.46991,16.8244 C 464.46991,18.96341 465.28095,20.03293 466.90204,20.03293 C 467.95307,20.03293 468.68921,19.5116 469.10925,18.46893 L 471.36126,19.64135 C 470.31304,21.50628 468.74011,22.44042 466.64361,22.44042 C 465.02587,22.44042 463.73095,21.94369 462.75714,20.95028 C 461.78497,19.95684 461.29773,18.58752 461.29773,16.84228 C 461.29773,15.12728 461.79224,13.76577 462.78064,12.75671 C 463.76843,11.74871 465.02588,11.2453 466.55408,11.2453 C 468.77027,11.2453 470.35779,12.11902 471.31543,13.86758 L 468.8844,15.08813 z" />

		</g>

	</g>

	<g
   id="g85">
		<circle
   cx="242.56226"
   cy="240.00684"
   r="10.8064"
   id="circle87"
   sodipodi:cx="242.56226"
   sodipodi:cy="240.00684"
   sodipodi:rx="10.8064"
   sodipodi:ry="10.8064"
   style="fill:#ffffff" />

		<g
   id="g89">
			<path
   d="M 245.68994,236.87988 C 245.68994,236.46289 245.35205,236.12597 244.93603,236.12597 L 240.16357,236.12597 C 239.74755,236.12597 239.40966,236.46288 239.40966,236.87988 L 239.40966,241.65234 L 240.74071,241.65234 L 240.74071,247.30468 L 244.3579,247.30468 L 244.3579,241.65234 L 245.68993,241.65234 L 245.68993,236.87988 L 245.68994,236.87988 z"
   id="path91" />

			<circle
   cx="242.5498"
   cy="233.86523"
   r="1.63232"
   id="circle93"
   sodipodi:cx="242.5498"
   sodipodi:cy="233.86523"
   sodipodi:rx="1.63232"
   sodipodi:ry="1.63232" />

		</g>

		<path
   clip-rule="evenodd"
   d="M 242.53467,228.10059 C 239.30322,228.10059 236.56641,229.22754 234.32715,231.48438 C 232.0293,233.81739 230.88086,236.58008 230.88086,239.76856 C 230.88086,242.95704 232.0293,245.7002 234.32715,247.99512 C 236.625,250.29004 239.36133,251.4375 242.53467,251.4375 C 245.74756,251.4375 248.53272,250.28027 250.88819,247.96582 C 253.10889,245.76855 254.21827,243.03613 254.21827,239.76855 C 254.21827,236.50097 253.08936,233.74023 250.83057,231.48437 C 248.57178,229.22754 245.80615,228.10059 242.53467,228.10059 z M 242.56396,230.2002 C 245.2124,230.2002 247.46142,231.13379 249.31103,233.00098 C 251.18115,234.84766 252.11572,237.1045 252.11572,239.76856 C 252.11572,242.45215 251.20068,244.67969 249.36963,246.44922 C 247.4419,248.35449 245.17334,249.30762 242.56397,249.30762 C 239.9546,249.30762 237.70557,248.36426 235.81739,246.47852 C 233.92774,244.5918 232.98389,242.35547 232.98389,239.76856 C 232.98389,237.18165 233.93799,234.92579 235.84619,233.00098 C 237.67676,231.13379 239.9165,230.2002 242.56396,230.2002 z"
   id="path95"
   style="fill-rule:evenodd" />

	</g>

	<path
   d="M 297.29639,224.73242 L 181.06739,224.73242 C 179.82081,224.73242 178.80616,225.74707 178.80616,226.99316 L 178.80616,266.48925 C 178.80616,266.77148 179.03516,266.99999 179.3169,266.99999 L 299.04639,266.99999 C 299.32813,266.99999 299.55713,266.77147 299.55713,266.48925 L 299.55713,226.99316 C 299.55713,225.74707 298.54297,224.73242 297.29639,224.73242 z M 181.06738,225.75391 L 297.29638,225.75391 C 297.97997,225.75391 298.53564,226.30957 298.53564,226.99317 C 298.53564,226.99317 298.53564,242.87598 298.53564,254.37208 L 215.46191,254.37208 C 212.41699,259.87794 206.55078,263.61622 199.81836,263.61622 C 193.08301,263.61622 187.21826,259.88087 184.17481,254.37208 L 179.82764,254.37208 C 179.82764,242.87599 179.82764,226.99317 179.82764,226.99317 C 179.82764,226.30957 180.38379,225.75391 181.06738,225.75391 z"
   id="path97" />

	<g
   enable-background="new    "
   id="g99">
		<path
   d="M 239.17822,257.68848 C 239.49609,257.68848 239.78564,257.7168 240.04736,257.77246 C 240.30908,257.82812 240.53369,257.91992 240.72119,258.04785 C 240.90771,258.1748 241.05322,258.34473 241.15576,258.55566 C 241.2583,258.76757 241.31006,259.02832 241.31006,259.33984 C 241.31006,259.67578 241.23389,259.95507 241.08057,260.17968 C 240.92823,260.40331 240.70166,260.58691 240.40284,260.72948 C 240.81495,260.84764 241.12257,261.05468 241.32569,261.35057 C 241.52881,261.64646 241.63038,262.00291 241.63038,262.41991 C 241.63038,262.75585 241.56495,263.04686 241.43409,263.29296 C 241.30323,263.53906 241.12647,263.73925 240.90577,263.89452 C 240.68409,264.05077 240.43116,264.166 240.14796,264.24022 C 239.86378,264.31542 239.57276,264.35252 239.27296,264.35252 L 236.03663,264.35252 L 236.03663,257.68846 L 239.17822,257.68846 L 239.17822,257.68848 z M 238.99121,260.38379 C 239.25244,260.38379 239.46777,260.32227 239.63623,260.19727 C 239.8042,260.07325 239.88818,259.87207 239.88818,259.59278 C 239.88818,259.43751 239.85986,259.31055 239.8042,259.21094 C 239.74756,259.11133 239.67334,259.03418 239.57959,258.97852 C 239.48633,258.92188 239.37891,258.88379 239.25732,258.86133 C 239.13574,258.83985 239.00976,258.8291 238.8789,258.8291 L 237.50536,258.8291 L 237.50536,260.38379 L 238.99121,260.38379 z M 239.07666,263.21191 C 239.22021,263.21191 239.35693,263.19824 239.48828,263.16992 C 239.61865,263.1416 239.73486,263.0957 239.83447,263.03027 C 239.93408,262.96484 240.01318,262.87597 240.07275,262.76465 C 240.13232,262.65235 240.16162,262.50977 240.16162,262.33496 C 240.16162,261.99316 240.06494,261.74902 239.87158,261.60351 C 239.67822,261.45703 239.42285,261.38378 239.10498,261.38378 L 237.50537,261.38378 L 237.50537,263.2119 L 239.07666,263.2119 L 239.07666,263.21191 z"
   id="path101"
   style="fill:#ffffff" />

		<path
   d="M 241.88916,257.68848 L 243.53271,257.68848 L 245.09326,260.32032 L 246.64404,257.68848 L 248.27783,257.68848 L 245.8042,261.79493 L 245.8042,264.35255 L 244.33545,264.35255 L 244.33545,261.75782 L 241.88916,257.68848 z"
   id="path103"
   style="fill:#ffffff" />

	</g>

	<g
   enable-background="new    "
   id="g105">
		<path
   d="M 265.27686,257.68848 L 268.06104,262.15918 L 268.07666,262.15918 L 268.07666,257.68848 L 269.45166,257.68848 L 269.45166,264.35254 L 267.98584,264.35254 L 265.2124,259.89063 L 265.19385,259.89063 L 265.19385,264.35254 L 263.81885,264.35254 L 263.81885,257.68848 L 265.27686,257.68848 z"
   id="path107"
   style="fill:#ffffff" />

		<path
   d="M 273.61377,257.68848 C 274.04443,257.68848 274.44385,257.75684 274.81494,257.89356 C 275.18603,258.03126 275.50635,258.23633 275.77783,258.50977 C 276.04834,258.78321 276.26025,259.12598 276.4126,259.53614 C 276.56592,259.94727 276.64209,260.42969 276.64209,260.98341 C 276.64209,261.46876 276.57959,261.917 276.45557,262.32716 C 276.33057,262.73829 276.14209,263.09278 275.89014,263.39161 C 275.63721,263.68946 275.32276,263.92481 274.9458,264.09571 C 274.56885,264.26759 274.12549,264.35255 273.61377,264.35255 L 270.73584,264.35255 L 270.73584,257.68849 L 273.61377,257.68849 L 273.61377,257.68848 z M 273.51123,263.11816 C 273.72314,263.11816 273.92822,263.08398 274.12744,263.01562 C 274.32666,262.94726 274.50439,262.83398 274.65967,262.67578 C 274.81494,262.5166 274.93994,262.31055 275.03369,262.05566 C 275.12646,261.80078 275.17334,261.49023 275.17334,261.12304 C 275.17334,260.7871 275.14111,260.48437 275.07568,260.21386 C 275.01025,259.94335 274.90283,259.71191 274.75341,259.51952 C 274.60399,259.32713 274.40673,259.17968 274.16064,259.07616 C 273.91455,258.9746 273.61084,258.92284 273.25048,258.92284 L 272.20458,258.92284 L 272.20458,263.11815 L 273.51123,263.11815 L 273.51123,263.11816 z"
   id="path109"
   style="fill:#ffffff" />

	</g>

	<g
   id="g6501"
   transform="matrix(0.624995,0,0,0.624995,-183.0107,316.9328)">
		
			<path
   id="path6503"
   cx="475.97119"
   ry="29.209877"
   cy="252.08646"
   type="arc"
   rx="29.209877"
   d="M 743.93005,-123.39972 C 743.93634,-113.98871 736.31128,-106.35272 726.89868,-106.34491 C 717.48767,-106.34021 709.85168,-113.96213 709.84387,-123.37628 C 709.84387,-123.38409 709.84387,-123.39346 709.84387,-123.39972 C 709.83764,-132.81229 717.46264,-140.44675 726.87524,-140.45456 C 736.28784,-140.46237 743.92224,-132.83728 743.93005,-123.42471 C 743.93005,-123.4169 743.93005,-123.40909 743.93005,-123.39972 z"
   style="fill:#ffffff" />

		<g
   id="g6505"
   transform="translate(-23.9521,-87.92102)">
			<path
   id="path6507"
   d="M 750.57263,-54.14914 C 745.39917,-54.14914 741.02258,-52.34604 737.43976,-48.7366 C 733.76319,-45.00219 731.92566,-40.58343 731.92566,-35.4787 C 731.92566,-30.37552 733.76318,-25.98956 737.43976,-22.3161 C 741.11633,-18.64419 745.49292,-16.80823 750.57263,-16.80823 C 755.71179,-16.80823 760.16809,-18.66138 763.93835,-22.36298 C 767.48999,-25.88019 769.2666,-30.25211 769.2666,-35.4787 C 769.2666,-40.70844 767.45874,-45.12564 763.8446,-48.7366 C 760.23059,-52.34604 755.80554,-54.14914 750.57263,-54.14914 z M 750.61951,-50.79129 C 754.85547,-50.79129 758.45398,-49.29599 761.41492,-46.30691 C 764.40558,-43.3522 765.90088,-39.74435 765.90088,-35.47869 C 765.90088,-31.1849 764.43683,-27.62237 761.50708,-24.7911 C 758.42273,-21.74108 754.79297,-20.21764 750.61951,-20.21764 C 746.44294,-20.21764 742.84449,-21.72545 739.82257,-24.74578 C 736.80066,-27.76299 735.28973,-31.34115 735.28973,-35.47869 C 735.28973,-39.61935 736.81628,-43.22719 739.86944,-46.30691 C 742.79919,-49.29599 746.38196,-50.79129 750.61951,-50.79129 z" />

			<g
   id="g6509">
				<path
   id="path6511"
   d="M 757.65088,-39.90375 L 744.07727,-39.90375 L 744.07727,-36.68964 L 757.65088,-36.68964 L 757.65088,-39.90375 z M 757.65088,-33.90369 L 744.07727,-33.90369 L 744.07727,-30.68961 L 757.65088,-30.68961 L 757.65088,-33.90369 z" />

			</g>

		</g>

	</g>

</g>
  </g>
</svg>

<?xml version="1.0" encoding="utf-8"?>
<!-- Generator: Adobe Illustrator 17.0.0, SVG Export Plug-In . SVG Version: 6.00 Build 0)  -->
<!DOCTYPE svg PUBLIC "-//W3C//DTD SVG 1.1//EN" "http://www.w3.org/Graphics/SVG/1.1/DTD/svg11.dtd">
<svg version="1.1"
	 id="svg2759" xmlns:svg="http://www.w3.org/2000/svg" xmlns:sodipodi="http://sodipodi.sourceforge.net/DTD/sodipodi-0.dtd" xmlns:inkscape="http://www.inkscape.org/namespaces/inkscape" xmlns:cc="http://web.resource.org/cc/" xmlns:dc="http://purl.org/dc/elements/1.1/" xmlns:rdf="http://www.w3.org/1999/02/22-rdf-syntax-ns#" inkscape:version="0.45+devel" sodipodi:docname="by-nd.svg" sodipodi:version="0.32" inkscape:output_extension="org.inkscape.output.svg.inkscape"
	 xmlns="http://www.w3.org/2000/svg" xmlns:xlink="http://www.w3.org/1999/xlink" x="0px" y="0px" width="120px" height="42px"
	 viewBox="0 0 120 42" enable-background="new 0 0 120 42" xml:space="preserve">
<sodipodi:namedview  width="120px" height="42px" id="base" borderopacity="1" guidetolerance="10" objecttolerance="10" bordercolor="#8b8b8b" inkscape:cx="179" inkscape:cy="89.569904" inkscape:zoom="1" pagecolor="#ffffff" gridtolerance="10000" inkscape:current-layer="layer1" inkscape:window-y="401" inkscape:window-x="488" inkscape:pageshadow="2" inkscape:pageopacity="0.0" inkscape:window-height="624" inkscape:document-units="px" inkscape:window-width="1198" inkscape:showpageshadow="false">
	</sodipodi:namedview>
<g id="layer1" inkscape:groupmode="layer" inkscape:label="Layer 1">
	
		<g id="g78" transform="matrix(0.9937808,0,0,0.9936696,-177.69414,-223.30978)" inkscape:export-xdpi="300.23013" inkscape:export-ydpi="300.23013" inkscape:export-filename="/mnt/hgfs/Bov/Documents/Work/2007/cc/identity/srr buttons/big/by-nd.png">
		<path id="path3817_6_" fill="#FFB700" d="M182.235,225.172l114.064,0.203c1.594,0,3.018-0.236,3.018,3.181l-0.14,37.566h-119.82
			v-37.706C179.357,226.731,179.52,225.172,182.235,225.172z"/>
		<g id="g5908_6_" transform="matrix(0.872921,0,0,0.872921,50.12536,143.2144)">
			<path id="path5906_6_" fill="#FFFFFF" d="M187.209,115.907c0.006,8.68-7.028,15.722-15.708,15.727
				c-8.68,0.006-15.722-7.028-15.727-15.708c0-0.007,0-0.012,0-0.019c-0.005-8.681,7.028-15.721,15.708-15.727
				c8.681-0.004,15.722,7.028,15.727,15.708C187.209,115.895,187.209,115.901,187.209,115.907z"/>
			<g id="g5706_6_" transform="translate(-289.6157,99.0653)">
				<path id="path5708_6_" d="M473.885,4.041c3.485,3.485,5.228,7.753,5.228,12.802c0,5.05-1.713,9.272-5.138,12.669
					c-3.635,3.575-7.932,5.363-12.889,5.363c-4.898,0-9.12-1.772-12.665-5.32c-3.546-3.545-5.318-7.783-5.318-12.712
					c0-4.928,1.773-9.196,5.318-12.802c3.455-3.487,7.677-5.23,12.665-5.23C466.133-1.189,470.399,0.553,473.885,4.041z
					 M450.767,6.384c-2.947,2.977-4.42,6.464-4.42,10.462c0,3.998,1.458,7.455,4.374,10.372c2.917,2.915,6.389,4.374,10.417,4.374
					c4.029,0,7.53-1.472,10.507-4.419c2.826-2.736,4.239-6.178,4.239-10.327c0-4.118-1.436-7.613-4.308-10.485
					c-2.871-2.87-6.35-4.306-10.438-4.306C457.05,2.056,453.592,3.499,450.767,6.384z M458.521,15.088
					c-0.45-0.982-1.124-1.472-2.023-1.472c-1.589,0-2.383,1.07-2.383,3.209s0.794,3.209,2.383,3.209
					c1.049,0,1.799-0.521,2.249-1.564l2.203,1.172c-1.05,1.865-2.625,2.799-4.725,2.799c-1.62,0-2.918-0.497-3.892-1.49
					c-0.976-0.993-1.463-2.363-1.463-4.108c0-1.715,0.502-3.077,1.508-4.086c1.005-1.008,2.257-1.511,3.758-1.511
					c2.22,0,3.81,0.874,4.771,2.622L458.521,15.088z M468.884,15.088c-0.451-0.982-1.111-1.472-1.982-1.472
					c-1.621,0-2.432,1.07-2.432,3.209s0.811,3.209,2.432,3.209c1.051,0,1.787-0.521,2.207-1.564l2.252,1.172
					c-1.048,1.865-2.621,2.799-4.718,2.799c-1.618,0-2.913-0.497-3.886-1.49c-0.972-0.993-1.459-2.363-1.459-4.108
					c0-1.715,0.495-3.077,1.483-4.086c0.988-1.008,2.245-1.511,3.773-1.511c2.216,0,3.804,0.874,4.761,2.622L468.884,15.088z"/>
			</g>
		</g>
		<g id="g85">
			
				<circle id="circle87" sodipodi:ry="10.8064" sodipodi:rx="10.8064" sodipodi:cy="240.00684" sodipodi:cx="242.56226" fill="#FFFFFF" cx="242.562" cy="240.007" r="10.805">
			</circle>
			<g id="g89">
				<path id="path91" d="M245.69,236.88c0-0.417-0.338-0.754-0.754-0.754h-4.772c-0.416,0-0.754,0.337-0.754,0.754v4.772h1.331
					v5.652h3.617v-5.652h1.332L245.69,236.88L245.69,236.88z"/>
				
					<circle id="circle93" sodipodi:ry="1.63232" sodipodi:rx="1.63232" sodipodi:cy="233.86523" sodipodi:cx="242.5498" cx="242.55" cy="233.865" r="1.632">
				</circle>
			</g>
			<path id="path95" d="M242.535,228.1c-3.231,0-5.968,1.127-8.208,3.384c-2.298,2.333-3.446,5.096-3.446,8.284
				c0,3.188,1.148,5.932,3.446,8.227s5.034,3.442,8.208,3.442c3.213,0,5.998-1.157,8.354-3.472c2.221-2.197,3.33-4.93,3.33-8.197
				s-1.129-6.028-3.388-8.284C248.572,229.227,245.806,228.1,242.535,228.1z M242.564,230.2c2.648,0,4.897,0.934,6.747,2.801
				c1.87,1.847,2.805,4.104,2.805,6.768c0,2.684-0.915,4.911-2.746,6.681c-1.928,1.905-4.196,2.858-6.806,2.858
				c-2.609,0-4.858-0.943-6.747-2.829c-1.89-1.887-2.833-4.123-2.833-6.71c0-2.587,0.954-4.843,2.862-6.768
				C237.677,231.134,239.916,230.2,242.564,230.2z"/>
		</g>
		<path id="path97" fill="#3E3935" d="M297.296,224.732H181.067c-1.247,0-2.261,1.015-2.261,2.261v39.496
			c0,0.282,0.229,0.511,0.511,0.511h119.729c0.282,0,0.511-0.229,0.511-0.511v-39.496
			C299.557,225.747,298.543,224.732,297.296,224.732z M181.067,225.754h116.229c0.684,0,1.239,0.556,1.239,1.239
			c0,0,0,15.883,0,27.379h-83.074c-3.045,5.506-8.911,9.244-15.644,9.244c-6.735,0-12.6-3.735-15.644-9.244h-4.347
			c0-11.496,0-27.379,0-27.379C179.828,226.309,180.384,225.754,181.067,225.754z"/>
		<g id="g99" enable-background="new    ">
			<path id="path101" fill="#FFFFFF" d="M239.178,257.688c0.318,0,0.607,0.028,0.869,0.084s0.486,0.147,0.674,0.275
				c0.187,0.127,0.332,0.297,0.435,0.508c0.103,0.212,0.154,0.473,0.154,0.784c0,0.336-0.076,0.615-0.229,0.84
				c-0.152,0.224-0.379,0.407-0.678,0.55c0.412,0.118,0.72,0.325,0.923,0.621c0.203,0.296,0.305,0.652,0.305,1.069
				c0,0.336-0.065,0.627-0.196,0.873c-0.131,0.246-0.308,0.446-0.528,0.602c-0.222,0.156-0.475,0.271-0.758,0.346
				c-0.284,0.075-0.575,0.112-0.875,0.112h-3.236v-6.664L239.178,257.688L239.178,257.688z M238.991,260.384
				c0.261,0,0.477-0.062,0.645-0.187c0.168-0.124,0.252-0.325,0.252-0.604c0-0.155-0.028-0.282-0.084-0.382
				c-0.057-0.1-0.131-0.177-0.225-0.232c-0.093-0.057-0.201-0.095-0.322-0.117c-0.122-0.021-0.248-0.032-0.378-0.032h-1.374v1.555
				H238.991z M239.077,263.212c0.144,0,0.28-0.014,0.412-0.042c0.13-0.028,0.247-0.074,0.346-0.14s0.179-0.154,0.238-0.266
				c0.06-0.112,0.089-0.255,0.089-0.43c0-0.342-0.097-0.586-0.29-0.731c-0.193-0.146-0.449-0.22-0.767-0.22h-1.6v1.828H239.077
				L239.077,263.212z"/>
			<path id="path103" fill="#FFFFFF" d="M241.889,257.688h1.644l1.561,2.632l1.551-2.632h1.634l-2.474,4.106v2.558h-1.469v-2.595
				L241.889,257.688z"/>
		</g>
		<g id="g105" enable-background="new    ">
			<path id="path107" fill="#FFFFFF" d="M265.277,257.688l2.784,4.471h0.016v-4.471h1.375v6.664h-1.466l-2.773-4.462h-0.019v4.462
				h-1.375v-6.664H265.277z"/>
			<path id="path109" fill="#FFFFFF" d="M273.614,257.688c0.431,0,0.83,0.068,1.201,0.205c0.371,0.138,0.691,0.343,0.963,0.616
				c0.271,0.273,0.482,0.616,0.635,1.026c0.153,0.411,0.229,0.894,0.229,1.447c0,0.485-0.062,0.934-0.187,1.344
				c-0.125,0.411-0.313,0.766-0.565,1.064c-0.253,0.298-0.567,0.533-0.944,0.704c-0.377,0.172-0.82,0.257-1.332,0.257h-2.878v-6.664
				H273.614L273.614,257.688z M273.511,263.118c0.212,0,0.417-0.034,0.616-0.103s0.377-0.182,0.532-0.34
				c0.155-0.159,0.28-0.365,0.374-0.62c0.093-0.255,0.14-0.565,0.14-0.933c0-0.336-0.032-0.639-0.098-0.909
				s-0.173-0.502-0.322-0.694c-0.149-0.192-0.347-0.34-0.593-0.443c-0.246-0.102-0.55-0.153-0.91-0.153h-1.046v4.195H273.511
				L273.511,263.118z"/>
		</g>
		<g id="g6501" transform="matrix(0.624995,0,0,0.624995,-183.0107,316.9328)">
			<path id="path6503" fill="#FFFFFF" d="M743.93-123.4c0.006,9.411-7.619,17.047-17.031,17.055
				c-9.411,0.005-17.047-7.617-17.055-17.031c0-0.008,0-0.017,0-0.023c-0.006-9.413,7.619-17.047,17.031-17.055
				s17.047,7.617,17.055,17.03C743.93-123.417,743.93-123.409,743.93-123.4z"/>
			<g id="g6505" transform="translate(-23.9521,-87.92102)">
				<path id="path6507" d="M750.573-54.149c-5.173,0-9.55,1.803-13.133,5.413c-3.677,3.734-5.514,8.153-5.514,13.258
					c0,5.103,1.838,9.489,5.514,13.163c3.677,3.672,8.053,5.508,13.133,5.508c5.139,0,9.595-1.853,13.366-5.555
					c3.552-3.517,5.328-7.889,5.328-13.116c0-5.23-1.808-9.647-5.422-13.258C760.23-52.346,755.805-54.149,750.573-54.149z
					 M750.619-50.791c4.236,0,7.834,1.495,10.795,4.484c2.991,2.955,4.486,6.563,4.486,10.828c0,4.294-1.464,7.856-4.394,10.688
					c-3.084,3.05-6.714,4.573-10.888,4.573c-4.177,0-7.775-1.508-10.797-4.528c-3.022-3.017-4.533-6.595-4.533-10.733
					c0-4.141,1.527-7.748,4.58-10.828C742.799-49.296,746.382-50.791,750.619-50.791z"/>
				<g id="g6509">
					<path id="path6511" d="M757.651-39.904h-13.574v3.214h13.574V-39.904z M757.651-33.904h-13.574v3.214h13.574V-33.904z"/>
				</g>
			</g>
		</g>
	</g>
</g>
</svg>
